2025/stickers/retro-badges/frameless/103.svg

<?xml version="1.0" encoding="UTF-8" standalone="no"?>
<!-- Created with Inkscape (http://www.inkscape.org/) -->

<svg
   width="50mm"
   height="33.333332mm"
   viewBox="0 0 49.999998 33.333332"
   version="1.1"
   id="svg1"
   xml:space="preserve"
   inkscape:version="1.4.1 (unknown)"
   sodipodi:docname="103.svg"
   inkscape:export-filename="103.png"
   inkscape:export-xdpi="300"
   inkscape:export-ydpi="300"
   xmlns:inkscape="http://www.inkscape.org/namespaces/inkscape"
   xmlns:sodipodi="http://sodipodi.sourceforge.net/DTD/sodipodi-0.dtd"
   xmlns="http://www.w3.org/2000/svg"
   xmlns:svg="http://www.w3.org/2000/svg"><sodipodi:namedview
     id="namedview1"
     pagecolor="#505050"
     bordercolor="#ffffff"
     borderopacity="1"
     inkscape:showpageshadow="0"
     inkscape:pageopacity="0"
     inkscape:pagecheckerboard="1"
     inkscape:deskcolor="#d1d1d1"
     inkscape:document-units="px"
     inkscape:zoom="0.5182969"
     inkscape:cx="568.20715"
     inkscape:cy="715.80595"
     inkscape:window-width="3840"
     inkscape:window-height="2038"
     inkscape:window-x="0"
     inkscape:window-y="0"
     inkscape:window-maximized="1"
     inkscape:current-layer="layer1" /><defs
     id="defs1" /><g
     inkscape:label="Layer 1"
     inkscape:groupmode="layer"
     id="layer1"><g
       id="g1"
       transform="matrix(0.24606299,0,0,0.24606299,1.3193897e-6,1.8848425e-6)"><path
         id="rect1-3"
         style="font-variation-settings:'wght' 900;fill:#c7363c;fill-opacity:1;stroke-width:18.7305;stroke-linecap:round;stroke-linejoin:round;paint-order:fill markers stroke"
         d="M 1.7499999e-6,2.4999999e-6 H 203.2 V 135.46666 H 1.7499999e-6 Z" /><path
         id="rect1-7-2"
         style="font-variation-settings:'wght' 900;fill:#cfd1d5;fill-opacity:1;stroke-width:2.64583;stroke-linecap:round;stroke-linejoin:round;stroke-dasharray:none;paint-order:fill markers stroke"
         d="m 46.005397,35.692125 25.13069,-8.822273 -9.81097,33.659873 -13.34231,-0.228162 4.233928,-21.519768 -6.184378,0.06878 z"
         sodipodi:nodetypes="ccccccc" /><path
         id="rect1-0"
         style="font-variation-settings:'wght' 900;fill:#cfd1d5;fill-opacity:1;stroke-width:2.64583;stroke-linecap:round;stroke-linejoin:round;paint-order:fill markers stroke"
         d="m 171.01635,22.360597 3.51075,1.009025 -2.85891,8.134904 -2.92215,-0.336342 z"
         sodipodi:nodetypes="ccccc" /><path
         id="rect1-0-4"
         style="font-variation-settings:'wght' 900;fill:#cfd1d5;fill-opacity:1;stroke-width:2.64583;stroke-linecap:round;stroke-linejoin:round;paint-order:fill markers stroke"
         d="m 177.29769,23.115162 3.76301,1.009025 -3.44751,8.639417 -3.17441,-0.672684 z"
         sodipodi:nodetypes="ccccc" /><path
         id="rect1-7"
         style="font-variation-settings:'wght' 900;fill:#cfd1d5;fill-opacity:1;stroke-width:2.64583;stroke-linecap:round;stroke-linejoin:round;paint-order:fill markers stroke"
         d="m 28.678868,23.977455 3.227113,-0.760541 2.661893,9.778895 -2.998951,0.684487 z"
         sodipodi:nodetypes="ccccc" /><path
         id="rect1-7-3"
         style="font-variation-settings:'wght' 900;fill:#cfd1d5;fill-opacity:1;stroke-width:2.64583;stroke-linecap:round;stroke-linejoin:round;paint-order:fill markers stroke"
         d="m 35.78517,22.717746 3.455274,-0.608433 0.380271,9.550732 -1.401815,0.07606 z"
         sodipodi:nodetypes="ccccc" /><path
         id="path1"
         style="font-variation-settings:'wght' 900;baseline-shift:baseline;display:inline;overflow:visible;opacity:1;vector-effect:none;fill:#cfd1d5;fill-opacity:1;paint-order:fill markers stroke;enable-background:accumulate;stop-color:#000000;stop-opacity:1"
         d="m 32.302937,75.242435 -3.349666,3.384289 10.226249,10.123412 3.351734,-3.384802 z m 44.046924,0.679545 -4.263823,2.994132 9.933761,8.55658 4.263305,-2.994132 z m 58.128749,1.513603 -7.93388,0.257865 -0.45217,13.220376 -6.57686,0.351917 0.22634,4.226616 6.20531,-0.332277 -0.11059,3.243212 -7.45587,6.971668 2.89233,3.62097 4.3403,-4.05918 -0.15245,4.45399 7.93337,-0.25787 0.49248,-14.39757 7.60935,-0.407207 -0.22686,-4.226616 -7.23728,0.387567 z m -72.158384,1.349788 -9.775114,0.0155 -0.634586,11.388456 -6.77168,0.355527 0.243913,4.755783 6.261633,-0.328657 -1.015442,18.22937 9.775114,-0.0134 1.043347,-18.730627 8.156092,-0.427887 -0.243913,-4.755783 -7.646045,0.401527 z m 50.099784,1.441256 -16.730762,0.806669 0.228927,4.757845 16.730245,-0.806664 z m 50.89612,3.673676 -18.65003,1.410251 -0.85731,17.871256 -6.76961,5.20899 3.64009,2.82618 7.26415,-5.87509 0.7674,-14.949473 5.77019,-0.42013 -1.64641,20.207033 40.1283,-2.5523 -0.2248,-4.22661 -30.01057,1.76578 z m -49.54685,3.656629 -19.421552,1.614881 0.265617,5.28495 4.629692,-0.385507 -0.07958,5.568137 -10.075354,7.431077 2.827734,3.8318 7.161837,-5.28288 -0.101286,7.08174 9.259902,0.13074 0.1266,-8.88214 5.05499,4.41161 3.13108,-3.58789 -8.09718,-7.067785 0.0625,-4.405936 5.52111,-0.459917 z m -22.237917,0.872814 -17.68936,1.068144 0.255799,4.224556 4.942851,-0.297657 -0.04599,3.987356 -10.774019,6.470915 1.923914,4.61109 8.783443,-5.27461 -0.04909,4.28242 7.935433,0.092 0.168465,-14.648208 4.804358,-0.28938 z m -49.9215,1.725991 -30.551107,1.791621 0.205156,4.757853 22.149035,-0.947754 -0.422713,9.068703 13.425537,-0.90796 -0.228927,-3.37602 -4.753198,0.093 z m 49.478116,5.897317 a 2.2258325,2.2258325 0 0 0 -2.225704,2.226218 2.2258325,2.2258325 0 0 0 2.225704,2.225708 2.2258325,2.2258325 0 0 0 2.225704,-2.225708 2.2258325,2.2258325 0 0 0 -2.225704,-2.226218 z m 47.354211,1.593701 a 2.2258325,2.2258325 0 0 0 -2.2257,2.225698 2.2258325,2.2258325 0 0 0 2.2257,2.226227 2.2258325,2.2258325 0 0 0 2.22571,-2.226227 2.2258325,2.2258325 0 0 0 -2.22571,-2.225698 z" /><path
         id="rect1-7-6"
         style="font-variation-settings:'wght' 900;fill:#cfd1d5;fill-opacity:1;stroke-width:2.64583;stroke-linecap:round;stroke-linejoin:round;paint-order:fill markers stroke"
         d="m 131.73574,34.61845 3.1326,-6.49434 25.39195,-0.571844 -10.60273,11.85068 c 21.54355,16.907317 -19.35951,28.122279 -28.7385,32.465397 l -0.92616,-1.027688 c 8.59993,-8.55858 26.9168,-17.917648 17.09499,-26.702527 l 12.02318,-12.795895 z"
         sodipodi:nodetypes="ccccccccc" /><path
         id="path2"
         style="font-variation-settings:'wght' 900;fill:#cfd1d5;fill-opacity:1;stroke:none;stroke-width:8.54932;stroke-opacity:0.756863;paint-order:fill markers stroke"
         d="m 77.763008,-69.317287 a 15.837975,18.084032 0 0 0 -2.948572,10.507827 15.837975,18.084032 0 0 0 15.838252,18.084121 15.837975,18.084032 0 0 0 8.686167,-2.962317 z m 3.502261,-4.056827 21.762381,25.850651 a 15.837975,18.084032 0 0 0 3.46296,-11.285947 15.837975,18.084032 0 0 0 -15.837817,-18.083838 15.837975,18.084032 0 0 0 -9.387524,3.519134 z"
         transform="rotate(56.881486)" /></g></g></svg>

<?xml version="1.0" encoding="UTF-8" standalone="no"?>
<!-- Created with Inkscape (http://www.inkscape.org/) -->

<svg
   width="768"
   height="512"
   viewBox="0 0 203.19999 135.46667"
   version="1.1"
   id="svg1"
   xml:space="preserve"
   inkscape:version="1.4.1 (unknown)"
   sodipodi:docname="103.svg"
   xmlns:inkscape="http://www.inkscape.org/namespaces/inkscape"
   xmlns:sodipodi="http://sodipodi.sourceforge.net/DTD/sodipodi-0.dtd"
   xmlns="http://www.w3.org/2000/svg"
   xmlns:svg="http://www.w3.org/2000/svg"><sodipodi:namedview
     id="namedview1"
     pagecolor="#505050"
     bordercolor="#ffffff"
     borderopacity="1"
     inkscape:showpageshadow="0"
     inkscape:pageopacity="0"
     inkscape:pagecheckerboard="1"
     inkscape:deskcolor="#d1d1d1"
     inkscape:document-units="px"
     inkscape:zoom="1.465965"
     inkscape:cx="173.26472"
     inkscape:cy="432.13857"
     inkscape:window-width="3840"
     inkscape:window-height="2038"
     inkscape:window-x="0"
     inkscape:window-y="0"
     inkscape:window-maximized="1"
     inkscape:current-layer="layer1" /><defs
     id="defs1" /><g
     inkscape:label="Layer 1"
     inkscape:groupmode="layer"
     id="layer1"><path
       id="rect1-3"
       style="font-variation-settings:'wght' 900;fill:#c7363c;fill-opacity:1;stroke-width:18.7305;stroke-linecap:round;stroke-linejoin:round;paint-order:fill markers stroke"
       d="M 1.7499999e-6,2.4999999e-6 H 203.2 V 135.46666 H 1.7499999e-6 Z" /><path
       id="rect1-7-2"
       style="font-variation-settings:'wght' 900;fill:#cfd1d5;fill-opacity:1;stroke-width:2.64583;stroke-linecap:round;stroke-linejoin:round;stroke-dasharray:none;paint-order:fill markers stroke"
       d="m 46.005397,35.692125 25.13069,-8.822273 -9.81097,33.659873 -13.34231,-0.228162 4.233928,-21.519768 -6.184378,0.06878 z"
       sodipodi:nodetypes="ccccccc" /><path
       id="rect1-0"
       style="font-variation-settings:'wght' 900;fill:#cfd1d5;fill-opacity:1;stroke-width:2.64583;stroke-linecap:round;stroke-linejoin:round;paint-order:fill markers stroke"
       d="m 171.01635,22.360597 3.51075,1.009025 -2.85891,8.134904 -2.92215,-0.336342 z"
       sodipodi:nodetypes="ccccc" /><path
       id="rect1-0-4"
       style="font-variation-settings:'wght' 900;fill:#cfd1d5;fill-opacity:1;stroke-width:2.64583;stroke-linecap:round;stroke-linejoin:round;paint-order:fill markers stroke"
       d="m 177.29769,23.115162 3.76301,1.009025 -3.44751,8.639417 -3.17441,-0.672684 z"
       sodipodi:nodetypes="ccccc" /><path
       id="rect1-7"
       style="font-variation-settings:'wght' 900;fill:#cfd1d5;fill-opacity:1;stroke-width:2.64583;stroke-linecap:round;stroke-linejoin:round;paint-order:fill markers stroke"
       d="m 28.678868,23.977455 3.227113,-0.760541 2.661893,9.778895 -2.998951,0.684487 z"
       sodipodi:nodetypes="ccccc" /><path
       id="rect1-7-3"
       style="font-variation-settings:'wght' 900;fill:#cfd1d5;fill-opacity:1;stroke-width:2.64583;stroke-linecap:round;stroke-linejoin:round;paint-order:fill markers stroke"
       d="m 35.78517,22.717746 3.455274,-0.608433 0.380271,9.550732 -1.401815,0.07606 z"
       sodipodi:nodetypes="ccccc" /><path
       id="path1"
       style="font-variation-settings:'wght' 900;baseline-shift:baseline;display:inline;overflow:visible;opacity:1;vector-effect:none;fill-opacity:1;paint-order:fill markers stroke;enable-background:accumulate;stop-color:#000000;stop-opacity:1;fill:#cfd1d5"
       d="m 32.302937,75.242435 -3.349666,3.384289 10.226249,10.123412 3.351734,-3.384802 z m 44.046924,0.679545 -4.263823,2.994132 9.933761,8.55658 4.263305,-2.994132 z m 58.128749,1.513603 -7.93388,0.257865 -0.45217,13.220376 -6.57686,0.351917 0.22634,4.226616 6.20531,-0.332277 -0.11059,3.243212 -7.45587,6.971668 2.89233,3.62097 4.3403,-4.05918 -0.15245,4.45399 7.93337,-0.25787 0.49248,-14.39757 7.60935,-0.407207 -0.22686,-4.226616 -7.23728,0.387567 z m -72.158384,1.349788 -9.775114,0.0155 -0.634586,11.388456 -6.77168,0.355527 0.243913,4.755783 6.261633,-0.328657 -1.015442,18.22937 9.775114,-0.0134 1.043347,-18.730627 8.156092,-0.427887 -0.243913,-4.755783 -7.646045,0.401527 z m 50.099784,1.441256 -16.730762,0.806669 0.228927,4.757845 16.730245,-0.806664 z m 50.89612,3.673676 -18.65003,1.410251 -0.85731,17.871256 -6.76961,5.20899 3.64009,2.82618 7.26415,-5.87509 0.7674,-14.949473 5.77019,-0.42013 -1.64641,20.207033 40.1283,-2.5523 -0.2248,-4.22661 -30.01057,1.76578 z m -49.54685,3.656629 -19.421552,1.614881 0.265617,5.28495 4.629692,-0.385507 -0.07958,5.568137 -10.075354,7.431077 2.827734,3.8318 7.161837,-5.28288 -0.101286,7.08174 9.259902,0.13074 0.1266,-8.88214 5.05499,4.41161 3.13108,-3.58789 -8.09718,-7.067785 0.0625,-4.405936 5.52111,-0.459917 z m -22.237917,0.872814 -17.68936,1.068144 0.255799,4.224556 4.942851,-0.297657 -0.04599,3.987356 -10.774019,6.470915 1.923914,4.61109 8.783443,-5.27461 -0.04909,4.28242 7.935433,0.092 0.168465,-14.648208 4.804358,-0.28938 z m -49.9215,1.725991 -30.551107,1.791621 0.205156,4.757853 22.149035,-0.947754 -0.422713,9.068703 13.425537,-0.90796 -0.228927,-3.37602 -4.753198,0.093 z m 49.478116,5.897317 a 2.2258325,2.2258325 0 0 0 -2.225704,2.226218 2.2258325,2.2258325 0 0 0 2.225704,2.225708 2.2258325,2.2258325 0 0 0 2.225704,-2.225708 2.2258325,2.2258325 0 0 0 -2.225704,-2.226218 z m 47.354211,1.593701 a 2.2258325,2.2258325 0 0 0 -2.2257,2.225698 2.2258325,2.2258325 0 0 0 2.2257,2.226227 2.2258325,2.2258325 0 0 0 2.22571,-2.226227 2.2258325,2.2258325 0 0 0 -2.22571,-2.225698 z" /><path
       id="rect1-7-6"
       style="font-variation-settings:'wght' 900;fill:#cfd1d5;fill-opacity:1;stroke-width:2.64583;stroke-linecap:round;stroke-linejoin:round;paint-order:fill markers stroke"
       d="m 131.73574,34.61845 3.1326,-6.49434 25.39195,-0.571844 -10.60273,11.85068 c 21.54355,16.907317 -19.35951,28.122279 -28.7385,32.465397 l -0.92616,-1.027688 c 8.59993,-8.55858 26.9168,-17.917648 17.09499,-26.702527 l 12.02318,-12.795895 z"
       sodipodi:nodetypes="ccccccccc" /><path
       id="path2"
       style="font-variation-settings:'wght' 900;fill:#cfd1d5;fill-opacity:1;stroke:none;stroke-width:8.54932;stroke-opacity:0.756863;paint-order:fill markers stroke"
       d="M 77.763008 -69.317287 A 15.837975 18.084032 5.0888875e-14 0 0 74.814436 -58.80946 A 15.837975 18.084032 5.0888875e-14 0 0 90.652688 -40.725339 A 15.837975 18.084032 5.0888875e-14 0 0 99.338855 -43.687656 L 77.763008 -69.317287 z M 81.265269 -73.374114 L 103.02765 -47.523463 A 15.837975 18.084032 5.0888875e-14 0 0 106.49061 -58.80941 A 15.837975 18.084032 5.0888875e-14 0 0 90.652793 -76.893248 A 15.837975 18.084032 5.0888875e-14 0 0 81.265269 -73.374114 z "
       transform="rotate(56.881486)" /></g></svg>
